X: 9
T: Cooley's
Z: eamonn barr
S: https://thesession.org/tunes/1#setting24552
R: reel
M: 4/4
L: 1/8
K: Edor
|:D2|EBBA B2 EB|B2 AB dBAG|FED AD BDAD|FEDAD BAGF|
EBBA B2 EB|B2 AB defg|afec dBAF|DEFD E2:|
|:gf|eB B2 efge|eB B2 gedB|A2 FA DAFA|A2 FA defg|
eB B2 eBgF|eB B2 defg|afec dBAF|DEFD E2:|
